X:1
T:Dievs, Tu esi žēlīgs, līdzjūtīgs
T:44. dziesma
T:"V. z. K. dz."
T:Dievs, Tu esi žēlīgs, līdzjūtīgs
T:(God of mercy and compassion)
C:44. dziesma
Z:"V. z. K. dz."
%%score { ( 1 2 ) | ( 3 4 ) }
L:1/8
M:3/4
K:G
V:1 treble nm="P1"
V:2 treble 
V:3 bass 
V:4 bass 
V:1
"^Andantino" GF | E2 G2 BB | AG F2 GF | E2 GF E^D | E4 GF | E2 G2 BB | AG F2 GF | E2 GF E^D | E4 || %9
w: 1. Tu|e- si žē- līgs,|līdz- jū- tīgs, pie- vērs|ska- tu man sa- vu,|Kungs; ļauj par|1. vu at- kal|Te- vi saukt, sa- vam|bēr- nam ļauj at- griez-|ties.|
w: 2. mu|pel- nī- jis es|ne- lai- mi, ma- na|al- ga ir mū- žīgs|posts, jo par|2. kiem ma- niem|pie- nāk- tos tais- nīgs|sods el- les mo- kas|ciest.|
w: 3. ar|grē- kiem es- mu|zau- dē- jis vi- sas|ce- rī- bas lai- mi|gūt, de- bess|3. ti man ir|aiz- slēg- ti, mī- las|val- stī- bu man- tot|liegts.|
w: 4. kur|Kal- vā- ri- jā|Pes- tī- tājs krus- ta|nā- vē par mums iet|mirt. Ma- ni|4. ki Vi- ņu|krus- tā sit, bet par|ma- ni Viņš cieš un|mirst.|
 GA | B3 B cB | B2 A2 BA | G3 B AG | G2 F2 GF | E2 G2 BB | AG F2 GF | E2 GF E^D | E4 |] %18
w: 1.\-4. Refrēns|ap- žē- lo- jies,|Kungs mans, ne- liec|lūg- ties man par|vel- ti: es no|1.\-4. siem grē- kiem|at- sa- kos, se- kot|ne- vē- los vairs es|tiem.|
w: |||||||||
w: |||||||||
w: |||||||||
V:2
 E^D | E2 E2 FF | EE D2 DD | C2 CC B,B, | B,4 E^D | E2 E2 FF | EE D2 DD | C2 CC B,B, | B,4 || EF | %10
 G3 G GG | G2 F2 FF | E3 E EE | D2 D2 DD | C2 B,2 ED | CC A,2 DD | C2 CC B,B, | B,4 |] %18
V:3
 B,A, | B,2 B,2 F,F, | A,A, A,2 G,G, | G,2 A,A, G,F, | G,4 B,A, | B,2 B,2 F,F, | A,A, A,2 G,G, | %7
 G,2 A,A, G,F, | G,4 || B,D | D3 D CD | D2 D2 B,B, | B,3 G, A,A, | B,2 A,2 G,G, | G,2 G,2 E,E, | %15
 E,E, D,2 D,D, | G,2 A,A, G,F, | G,4 |] %18
V:4
 E,F, | G,2 E,2 D,D, | C,C, D,2 B,,B,, | C,B,, A,,A,, B,,B,, | E,4 E,F, | G,2 E,2 D,D, | %6
 C,C, D,2 B,,B,, | C,B,, A,,A,, B,,B,, | E,4 || E,D, | G,3 F, E,G, | D,2 D,2 D,D, | E,3 D, C,C, | %13
 D,2 D,2 B,,B,, | C,2 E,2 G,,G,, | A,,A,, D,2 B,,B,, | C,B,, A,,A,, B,,B,, | E,4 |] %18

